packages/elvis-assets-icons/icons/svg/src/electrical_system-color.svg

<svg width="24" height="24" viewBox="0 0 24 24" fill="none" xmlns="http://www.w3.org/2000/svg">
<path d="M3.749 22C3.335 22 2.999 21.6621 2.999 21.2458V10.246L1.279 11.9754C1.138 12.1172 0.949 12.1956 0.749 12.1956C0.549 12.1956 0.36 12.1172 0.219 11.9744C-0.073 11.6808 -0.073 11.2021 0.219 10.9075L10.409 0.661669C10.833 0.235305 11.398 0 12 0C12.601 0 13.166 0.235305 13.591 0.661669L15.797 2.87997L20.999 8.11098L23.779 10.9065C24.071 11.2001 24.071 11.6788 23.779 11.9734C23.637 12.1162 23.449 12.1946 23.249 12.1946C23.049 12.1946 22.86 12.1162 22.719 11.9734L20.999 10.2441L19.499 8.73608L12.53 1.72959C12.389 1.58781 12.201 1.50937 12 1.50937C11.799 1.50937 11.611 1.58781 11.469 1.72959L4.499 8.73777V20.4916H6.5C6.5 20.4916 7.5 20.4916 7.5 21.2458C7.5 22 6.5 22 6.5 22H3.749Z" fill="black"/>
<path d="M20.2353 11H9.76471C8.82353 11 8 11.8426 8 12.8056V22.1944C8 23.1574 8.82353 24 9.76471 24H20.2353C21.1765 24 22 23.1574 22 22.1944V12.8056C22 11.8426 21.1765 11 20.2353 11ZM20.4706 21.8333C20.4706 22.1944 20.2353 22.4352 19.8824 22.4352H10C9.64706 22.4352 9.41177 22.1944 9.41177 21.8333V13.0463C9.41177 12.6852 9.64706 12.4444 10 12.4444H19.8824C20.2353 12.4444 20.4706 12.6852 20.4706 13.0463V21.8333Z" fill="black"/>
<path fill-rule="evenodd" clip-rule="evenodd" d="M15.411 16.571L15.9462 12.8L12.8695 18.429H14.6364L14.1012 22.2L17.1779 16.571H15.411Z" fill="#29D305"/>
</svg>

<svg width="24" height="24" fill="none" xmlns="http://www.w3.org/2000/svg"><path d="M3.749 22a.752.752 0 01-.75-.754v-11l-1.72 1.73a.744.744 0 01-1.06-.002.76.76 0 010-1.066L10.409.662A2.229 2.229 0 0112 0c.601 0 1.166.235 1.591.662l2.206 2.218 5.202 5.231 2.78 2.795a.76.76 0 010 1.067.742.742 0 01-1.06 0l-1.72-1.729-1.5-1.508L12.53 1.73a.746.746 0 00-1.061 0l-6.97 7.008v11.754H6.5s1 0 1 .754-1 .754-1 .754H3.749z" fill="#000"/><path d="M20.235 11H9.765C8.824 11 8 11.843 8 12.806v9.388C8 23.157 8.824 24 9.765 24h10.47c.942 0 1.765-.843 1.765-1.806v-9.388c0-.963-.823-1.806-1.765-1.806zm.236 10.833c0 .361-.236.602-.589.602H10c-.353 0-.588-.24-.588-.602v-8.787c0-.36.235-.602.588-.602h9.882c.353 0 .589.241.589.602v8.787z" fill="#000"/><path fill-rule="evenodd" clip-rule="evenodd" d="M15.411 16.571l.535-3.771-3.076 5.629h1.766l-.535 3.771 3.077-5.629H15.41z" fill="#29D305"/></svg>
